X: 24872
T: Magic Potion, The
R: jig
M: 6/8
K: Dmajor
afd ede|fed BdB|Ade ~f3|afd efg|
afd ede|fed BdB|Ade ~f3|edc d3:|
FDD ADD|BAG AFE|FDD ABc|d>DD FED|
FDD ADD|BAG AFD|~G3~F3|EFED3:|
agf ~g3|~f3 efe|de/d/d BdB|Adf efg|
aAA gAA|~f3 efe|de/d/d BdB|ABc d3:|

